shader_type canvas_item;
render_mode blend_mix,unshaded;

vec4 fromLinear(vec4 linearRGB)
{
    bvec4 cutoff = lessThan(linearRGB, vec4(0.0031308));
    vec4 higher = vec4(1.055)*pow(linearRGB, vec4(1.0/2.4)) - vec4(0.055);
    vec4 lower = linearRGB * vec4(12.92);

    return mix(higher, lower, cutoff);
}

void fragment() {
	COLOR = fromLinear(texture(TEXTURE,UV));
}
